X: 2
T: 02 WE WISH YOU A MERRY CHRISTMAS
C: British Folk Song
M: 3/4
L: 1/4
K: C
e d c| g GG| A d B| c/G/ EG|: c c/d/ c/B/|
A AA| d  d/e/ d/c/| B GG| e e/f/ e/d/| c A G/G/| A dB|
c2 G|| c cc| B2  B| c B A| G2 d| e d c|
g G G/G/| A d B| c2 G :|A2 d|d  B2| c3|
f/_e/ cF c3| E G/c/ e/g/| c'z2|]
